X:99
T:Steyrer Tanz in G, nr. 68
C:traditionell
R:Steirer
A:Hallstatt, Salzkammergut
B:Corpus Musicae Popularis Austriacae (COMPA), 5.Band: J.M.Schmalnauer " Tanz Musik", Verlag Boehlau, Wien 1996
S:manuscript des Johann Michael Schmalnauer um 1820
N:im der quelle in G
Z:abc transcription Simon Wascher
F:http://simonwascher.info/TradArchiv/
M:3/4
L:1/8
K:G
V:1
%violino 1mo
P:g:Ap
Bc |\
d2 BG,BG, | cegfed | c2 "4"F"o"D"4"F"o"D | G2 BG,BG, |\
d2 BG,BG, | cegfed | c2 "4"F"o"D"4"F"o"D | G4 :|
V:2
%violino 2do
GA |\
B2 (GB,GB,) | (Ac) (edcB) | AF DA,DA, | B,2 DB,DB, |\
B2 (GB,GB,) | (Ac) (edcB) | AF DA,DA, | B,4 :|
